X: 1
T: Earl Grey
R: strathspey
O: Traditional
B: Athole
Z: 1997 by John Chambers <jc:trillian.mit.edu>
N: Tune for Jill's Medley
N: Tune for Linnea's Strathspey
M: C
L: 1/8
K: A
E \
|: "A"A>B A>E "D"F>A "A"E>c | "Bm"d>B d/c/B/A/ "E7"G<B B>c \
|  "A"A>B A>E "D"F>A "A"E>c | "Bm"(3def "E7"(3efg "A"(3aed "E7"(3cdB ||
|  "A"A>B A>E "D"F>A "A"E>c | "Bm"d>B d/c/B/A/ "E7"G<B B>c \
|  "A"A>B A>E "D"F>A "A"E>c | "Bm"(3def "E7"(3efg "A"a<A A |]
g- \
|  "A"a>A g>A "D"f>A "A"e>A | "Bm"d>B d/c/B/A/ "E7"G<B B>g- \
|  "A"a>A g>A "D"f>A "A"e>A | "Bm"(3def "E7"(3efg "A"a<A A>g- ||
|  "D"(3afa "E"(3geg "D"(3fdf "A"(3ece | "Bm"d>B d/c/B/A/ "E7"G<B B>c \
|  "A"A>B A>E "D"F>A "A"E>c |1 "Bm"(3def "E7"(3efg "A"(3aed "E7"(3cd!d.C.!B :|
|2 "Bm"(3def "E7"(3efg "A"a<A A |] y8 y8 y8 y8 y8 y8 y8 y8 y8 y8
%%center Book47/Earl_Grey_1-A-16-5.abc

%%sep 1 1 500
%%sep 1 1 500

